images/startup.svg

<svg height="65" viewBox="0 0 66 65" width="66" xmlns="http://www.w3.org/2000/svg"><g fill="#731982" transform=""><circle cx="1.27451" cy="63.72549" r="1.27451"/><circle cx="34.093137" cy="31.22549" r="1.27451"/><path d="m50.6702019 14.9692403c-1.0235571-1.0234384-2.3844531-1.5868874-3.8319666-1.5868874s-2.8085363.5637026-3.8319666 1.5868874c-2.1129334 2.1125532-2.1129334 5.5497948 0 7.6622212 1.0566569 1.0562766 2.4440581 1.5842248 3.8319666 1.5842248 1.387528 0 2.7755633-.5282017 3.8319666-1.5842248 2.1129334-2.1125532 2.1129334-5.5497948 0-7.6622212zm-1.8004511 5.8619485c-1.1201933 1.1197978-2.9429645 1.1197978-4.0629042 0-1.1201933-1.1197977-1.1201933-2.9420049 0-4.0619294.542659-.5425289 1.2640062-.841243 2.0313887-.841243s1.4887297.2987141 2.0313887.841243c1.1201933 1.1199245 1.1201933 2.9421317.0001268 4.0619294z"/><path d="m15.8673163 52.3163593c-.6254498-.3114654-1.3847085-.0568248-1.6961734.5684999l-1.5066736 3.0258254c-.6551851 1.315538-1.972863 2.1952512-3.43921758 2.2955451l-1.75236804.1199494c-.29621925.0197816-.4910108-.1277612-.58109875-.2178493s-.23800857-.2852579-.21784903-.5812256l.11994926-1.7522447c.10041971-1.4662307.98013165-2.7840366 2.29554166-3.4392226l3.02569498-1.5066759c.6254498-.3114653.879964-1.0708511.5684991-1.6961758-.3113389-.6253247-1.0707236-.8799652-1.6961734-.5684999l-3.02569497 1.5066759c-2.11574375 1.0535895-3.53043949 3.1728643-3.69196781 5.53103l-.11994927 1.7522447c-.06476252.9458618.28248556 1.872698.95279028 2.5430037.61713393.6171349 1.45186489.9606035 2.31872512.9606035.07446431 0 .1494326-.0025199.22427489-.0076858l1.75236804-.1199494c2.35816222-.1614026 4.47743392-1.5759744 5.53102192-3.6919733l1.5066736-3.0256995c.3114649-.6254506.0569507-1.3847104-.568373-1.6961758z"/><path d="m64.4348549.85402213c-.6010322-.59266604-1.4290304-.90259934-2.2700417-.84781509l-1.1926236.07611053c-10.693679.68333461-20.7014847 5.85003901-27.4572606 14.17545803l-2.8072837 3.4593256-7.3464742-.2159445c-.0125029-.0003831-.0251334-.0005108-.0375087-.0005108-5.8263512 0-11.3040246 2.2710564-15.42398522 6.3948167l-7.52444912 7.5317497c-.35786361.3582047-.47153793.8939155-.28986314 1.3666692.18167479.4728813.6243795.7944355 1.12985387.8202314l15.92767351.8190821-.6493853.8003098c-.3272443.4034114-.379042.964535-.1308977 1.4209427.2495476.4592172.5110879.9111554.7838552 1.3558146l-3.7771515 4.4883501c-.3229065.3837452-.3924379.9208608-.1782301 1.3744591.8250638 1.7450509 1.9200882 3.3129789 3.2550917 4.6602374 1.3674089 1.3802056 2.9663767 2.5088379 4.75225 3.3548652.1745303.082751.3616911.1232326.5477036.1232326.2884597 0 .5744955-.0975645.8072025-.2864361.8137091-.6607313 1.7518093-1.4444399 2.6591626-2.2022249.6467061-.5401804 1.3083392-1.0927479 1.9267224-1.6022798.3690907.2223295.7427743.4378909 1.1220714.6443854.1918813.1044604.4022617.1559244.6118766.1559244.2788912 0 .5559963-.090924.7853862-.2691963l.8730341-.6780988.8218743 16.0100282c.0260265.5059562.3471469.9490829.8194503 1.1309309.1495244.057466.3049176.0855605.4592902.0855605.3336233 0 .6612503-.1306394.9059499-.3757l7.5245767-7.5317496c4.1199606-4.123888 6.3887265-9.6066554 6.3887265-15.4386884v-7.022984l2.968418-2.3056637c8.8960683-6.9099675 14.314034-17.329703 14.8646719-28.58767589l.0304917-.62395308c.0415913-.84334551-.2794015-1.66676947-.8801786-2.2595632zm-60.21128537 30.34741257 5.48749713-5.4927282c3.63158204-3.6350438 8.45897704-5.6389472 13.59409654-5.6439276l5.3692299.15784-9.5315472 11.7460508zm19.34772687 16.3525256c-.66865.5583141-1.3541406 1.1309309-1.9902575 1.6546377-1.2303874-.6669887-2.3434006-1.4992241-3.3160752-2.4809988-.9420552-.9507431-1.7438993-2.0332749-2.3904778-3.2257583l2.7654372-3.2861614c.8361633 1.1228857 1.7514266 2.1865175 2.7401763 3.182978.0007655.0007662.001531.0014047.0022965.002171.0002551.0002554.0005103.0006385.0007655.0008939.0003827.0003831.0007654.0006385.0011482.0010216 1.0963002 1.1043688 2.2755277 2.1178137 3.5264556 3.0343326-.4416841.3670162-.8942125.7450148-1.3394688 1.1168837zm21.3188472-5.9000983c0 5.1470382-2.0023776 9.985931-5.6385526 13.6255722l-5.4874971 5.4927282-.7657388-14.9145985 11.8916609-9.2367021v5.0330002zm17.8361518-38.04159948c-.5140223 10.50951018-5.5718279 20.23658878-13.87656 26.68721138l-20.0888426 15.6038074c-1.6659476-.974368-3.2187312-2.1248374-4.6398516-3.428294l6.7727442-6.7792004c.500116-.5005927.500116-1.3125235 0-1.8132439-.5002436-.5007205-1.3112735-.5007205-1.8115171 0l-6.7663651 6.7728153c-1.2440385-1.3785456-2.3458247-2.8785359-3.2839249-4.482859l16.4714221-20.2981413c6.3065646-7.77182978 15.6490374-12.59514288 25.6318372-13.23288781l1.1926236-.07611052c.1562862-.00970537.2609023.06793758.3091278.11544281.0480979.04737753.1275806.15043322.1199258.30763466z"/></g></svg>

<?xml version="1.0" encoding="UTF-8"?>
<svg width="66px" height="65px" viewBox="0 0 66 65" version="1.1" xmlns="http://www.w3.org/2000/svg" xmlns:xlink="http://www.w3.org/1999/xlink">
    <!-- Generator: Sketch 48.2 (47327) - http://www.bohemiancoding.com/sketch -->
    <title>006-startup</title>
    <desc>Created with Sketch.</desc>
    <defs></defs>
    <g id="Desktop-HD-Copy-25" stroke="none" stroke-width="1" fill="none" fill-rule="evenodd" transform="translate(-250.000000, -1272.000000)">
        <g id="Group-4" transform="translate(250.000000, 1272.000000)" fill="#731982" fill-rule="nonzero">
            <g id="006-startup">
                <circle id="Oval" cx="1.2745098" cy="63.7254902" r="1.2745098"></circle>
                <circle id="Oval" cx="34.0931373" cy="31.2254902" r="1.2745098"></circle>
                <path d="M50.6702019,14.9692403 C49.6466448,13.9458019 48.2857488,13.3823529 46.8382353,13.3823529 C45.3907218,13.3823529 44.029699,13.9460555 43.0062687,14.9692403 C40.8933353,17.0817935 40.8933353,20.5190351 43.0062687,22.6314615 C44.0629256,23.6877381 45.4503268,24.2156863 46.8382353,24.2156863 C48.2257633,24.2156863 49.6137986,23.6874846 50.6702019,22.6314615 C52.7831353,20.5189083 52.7831353,17.0816667 50.6702019,14.9692403 Z M48.8697508,20.8311888 C47.7495575,21.9509866 45.9267863,21.9509866 44.8068466,20.8311888 C43.6866533,19.7113911 43.6866533,17.8891839 44.8068466,16.7692594 C45.3495056,16.2267305 46.0708528,15.9280164 46.8382353,15.9280164 C47.6056178,15.9280164 48.326965,16.2267305 48.869624,16.7692594 C49.9898173,17.8891839 49.9898173,19.7113911 48.8697508,20.8311888 Z" id="Shape"></path>
                <path d="M15.8673163,52.3163593 C15.2418665,52.0048939 14.4826078,52.2595345 14.1711429,52.8848592 L12.6644693,55.9106846 C12.0092842,57.2262226 10.6916063,58.1059358 9.22525172,58.2062297 L7.47288368,58.3261791 C7.17666443,58.3459607 6.98187288,58.1984179 6.89178493,58.1083298 C6.80169698,58.0182417 6.65377636,57.8230719 6.6739359,57.5271042 L6.79388516,55.7748595 C6.89430487,54.3086288 7.77401681,52.9908229 9.08942682,52.3356369 L12.1151218,50.828961 C12.7405716,50.5174957 12.9950858,49.7581099 12.6836209,49.1327852 C12.372282,48.5074605 11.6128973,48.25282 10.9874475,48.5642853 L7.96175253,50.0709612 C5.84600878,51.1245507 4.43131304,53.2438255 4.26978472,55.6019912 L4.14983545,57.3542359 C4.08507293,58.3000977 4.43232101,59.2269339 5.10262573,59.8972396 C5.71975966,60.5143745 6.55449062,60.8578431 7.42135085,60.8578431 C7.49581516,60.8578431 7.57078345,60.8553232 7.64562574,60.8501573 L9.39799378,60.7302079 C11.756156,60.5688053 13.8754277,59.1542335 14.9290157,57.0382346 L16.4356893,54.0125351 C16.7471542,53.3870845 16.49264,52.6278247 15.8673163,52.3163593 Z" id="Shape"></path>
                <path d="M64.4348549,0.854022125 C63.8338227,0.26135609 63.0058245,-0.0485772144 62.1648132,0.00620704094 L60.9721896,0.0823175682 C50.2785106,0.765652184 40.2707049,5.93235658 33.514929,14.2577756 L30.7076453,17.7171012 L23.3611711,17.5011567 C23.3486682,17.5007736 23.3360377,17.5006459 23.3236624,17.5006459 C17.4973112,17.5006459 12.0196378,19.7717023 7.89967718,23.8954626 L0.375228061,31.4272123 C0.0173644544,31.785417 -0.0963098677,32.3211278 0.0853649187,32.7938815 C0.267039705,33.2667628 0.709744416,33.588317 1.21521879,33.6141129 L17.1428923,34.433195 L16.493507,35.2335048 C16.1662627,35.6369162 16.114465,36.1980398 16.3626093,36.6544475 C16.6121569,37.1136647 16.8736972,37.5656029 17.1464645,38.0102621 L13.369313,42.4986122 C13.0464065,42.8823574 12.9768751,43.419473 13.1910829,43.8730713 C14.0161467,45.6181222 15.1111711,47.1860502 16.4461746,48.5333087 C17.8135835,49.9135143 19.4125513,51.0421466 21.1984246,51.8881739 C21.3729549,51.9709249 21.5601157,52.0114065 21.7461282,52.0114065 C22.0345879,52.0114065 22.3206237,51.913842 22.5533307,51.7249704 C23.3670398,51.0642391 24.30514,50.2805305 25.2124933,49.5227455 C25.8591994,48.9825651 26.5208325,48.4299976 27.1392157,47.9204657 C27.5083064,48.1427952 27.88199,48.3583566 28.2612871,48.5648511 C28.4531684,48.6693115 28.6635488,48.7207755 28.8731637,48.7207755 C29.1520549,48.7207755 29.42916,48.6298515 29.6585499,48.4515792 L30.531584,47.7734804 L31.3534583,63.7835086 C31.3794848,64.2894648 31.7006052,64.7325915 32.1729086,64.9144395 C32.322433,64.9719055 32.4778262,65 32.6321988,65 C32.9658221,65 33.2934491,64.8693606 33.5381487,64.6243 L41.0627254,57.0925504 C45.182686,52.9686624 47.4514519,47.485895 47.4514519,41.653862 L47.4514519,34.630878 L50.4198699,32.3252143 C59.3159382,25.4152468 64.7339039,14.9955113 65.2845418,3.73753841 L65.3150335,3.11358533 C65.3566248,2.27023982 65.035632,1.44681586 64.4348549,0.854022125 Z M4.22356953,31.2014347 L9.71106666,25.7087065 C13.3426487,22.0736627 18.1700437,20.0697593 23.3051632,20.0647789 L28.6743931,20.2226189 L19.1428459,31.9686697 L4.22356953,31.2014347 Z M23.5712964,47.5539603 C22.9026464,48.1122744 22.2171558,48.6848912 21.5810389,49.208598 C20.3506515,48.5416093 19.2376383,47.7093739 18.2649637,46.7275992 C17.3229085,45.7768561 16.5210644,44.6943243 15.8744859,43.5018409 L18.6399231,40.2156795 C19.4760864,41.3385652 20.3913497,42.402197 21.3800994,43.3986575 C21.3808649,43.3994237 21.3816304,43.4000622 21.3823959,43.4008285 C21.382651,43.4010839 21.3829062,43.401467 21.3831614,43.4017224 C21.3835441,43.4021055 21.3839268,43.4023609 21.3843096,43.402744 C22.4806098,44.5071128 23.6598373,45.5205577 24.9107652,46.4370766 C24.4690811,46.8040928 24.0165527,47.1820914 23.5712964,47.5539603 Z M44.8901436,41.653862 C44.8901436,46.8009002 42.887766,51.639793 39.251591,55.2794342 L33.7640939,60.7721624 L32.9983551,45.8575639 L44.890016,36.6208618 L44.890016,41.653862 L44.8901436,41.653862 Z M62.7262954,3.61226252 C62.2122731,14.1217727 57.1544675,23.8488513 48.8497354,30.2994739 L28.7608928,45.9032813 C27.0949452,44.9289133 25.5421616,43.7784439 24.1210412,42.4749873 L30.8937854,35.6957869 C31.3939014,35.1951942 31.3939014,34.3832634 30.8937854,33.882543 C30.3935418,33.3818225 29.5825119,33.3818225 29.0822683,33.882543 L22.3159032,40.6553583 C21.0718647,39.2768127 19.9700785,37.7768224 19.0319783,36.1724993 L35.5034004,15.874358 C41.809965,8.10252822 51.1524378,3.27921512 61.1352376,2.64147019 L62.3278612,2.56535967 C62.4841474,2.5556543 62.5887635,2.63329725 62.636989,2.68080248 C62.6850869,2.72818001 62.7645696,2.8312357 62.7569148,2.98843714 L62.7262954,3.61226252 Z" id="Shape"></path>
            </g>
        </g>
    </g>
</svg>
